src/pages/login/images/bglogo.svg

<svg height="55" viewBox="0 0 156 55" width="156" xmlns="http://www.w3.org/2000/svg" xmlns:xlink="http://www.w3.org/1999/xlink"><defs><path id="a" d="m0 0h156v55h-156z"/><mask id="b" fill="#fff"><use fill="#fff" fill-rule="evenodd" xlink:href="#a"/></mask></defs><g fill="none" fill-rule="evenodd"><use fill="#f0f2f5" xlink:href="#a"/><g mask="url(#b)"><g stroke="#e6eef8" transform="translate(1.151953 -66.410341)"><g fill-rule="evenodd" transform="translate(0 55)"><path d="m153.200524 54.2477064c0 8.3984273-3.998689 15.863827-10.19135 20.6068152-.365662.3055046-.743119.5897772-1.155963.8374836l-.011796.010616c-1.486238.9094365-3.231979 1.4272608-5.10747 1.4272608-5.42595 0-9.837484-4.4103538-9.837484-9.836304 0-5.4389253 4.411534-9.8374836 9.837484-9.8374836 2.017038 0 3.892529.6003931 5.461337 1.6513761.731324.3762779 1.568807.5897772 2.453473.5897772 3.007864 0 5.437746-2.4416776 5.437746-5.4495413 0-3.0090432-2.429882-5.4377457-5.437746-5.4377457h-62.1861076c-2.3944954 0-4.5176933 1.1323722-5.8612057 2.9017038-1.3458716-1.7693316-3.4690695-2.9017038-5.8635649-2.9017038h-44.7994758c-14.3315858 0-25.938401-11.6186108-25.938401-25.9395806 0-8.3984273 3.99986894-15.86500657 10.1925295-20.59501968.3644823-.30550459.7431193-.5897772 1.1547837-.84809961h.0117956c1.4874181-.90943643 3.231979-1.42726081 5.1074705-1.42726081 5.4271297 0 9.8374836 4.39855832 9.8374836 9.83748362 0 5.42477068-4.4103539 9.82568808-9.8374836 9.82568808-2.017038 0-3.8925295-.6015727-5.4613368-1.6395806v-.0129751c-.7313238-.3644823-1.56880738-.5768021-2.45347317-.5768021-3.00786369 0-5.43656618 2.440498-5.43656618 5.4365662 0 3.0078637 2.42870249 5.4507208 5.43656618 5.4507208h62.18610747c2.3944954 0 4.5176933-1.1441677 5.8635649-2.9134993 1.3435124 1.7693316 3.4667103 2.9134993 5.8612057 2.9134993h44.8124506c14.318611 0 25.925426 11.6056357 25.925426 25.9266055z"/><path d="m31.9787811 65.9130275c0-.8598951.6947576-1.5570118 1.5558323-1.5570118h3.5150721c1.9344692 0 3.4914809-1.5688073 3.4914809-3.491481v-12.0550458h20.4888598v12.0550458c0 1.9226737 1.5699869 3.491481 3.491481 3.491481h3.5280472c.8480996 0 1.5558322.6971167 1.5558322 1.5570118"/><g stroke-linecap="round" stroke-linejoin="round"><path d="m69.6053866 11.2169725c0 .8610747-.7077326 1.5570118-1.5558322 1.5570118h-3.5280472c-1.9214941 0-3.491481 1.5581913-3.491481 3.491481v12.0550458h-20.4888598v-12.0550458c0-1.9332897-1.5570117-3.491481-3.4914809-3.491481h-3.5150721c-.8610747 0-1.5558323-.6959371-1.5558323-1.5570118"/><path d="m83.6063434 65.9130275c0-.8598951.6841415-1.5570118 1.5463958-1.5570118h3.5256881c1.9238532 0 3.4926605-1.5688073 3.4926605-3.491481v-12.0550458h20.4876802v12.0550458c0 1.9226737 1.558191 3.491481 3.491481 3.491481h3.516252c.859895 0 1.557011.6971167 1.557011 1.5570118"/><path d="m121.223984 11.2169725c0 .8610747-.697116 1.5570118-1.558191 1.5570118h-3.515072c-1.934469 0-3.491481 1.5581913-3.491481 3.491481v12.0550458h-20.4876804v-12.0550458c0-1.9332897-1.5581913-3.491481-3.4926605-3.491481h-3.5256881c-.8622543 0-1.5463958-.6959371-1.5463958-1.5570118"/><path d="m31.978781 65.913028h37.626606"/><path d="m83.978781 65.913028h37.245203"/></g></g><g fill-rule="evenodd" transform="translate(0 110)"><path d="m153.200524 54.2477064c0 8.3984273-3.998689 15.863827-10.19135 20.6068152-.365662.3055046-.743119.5897772-1.155963.8374836l-.011796.010616c-1.486238.9094365-3.231979 1.4272608-5.10747 1.4272608-5.42595 0-9.837484-4.4103538-9.837484-9.836304 0-5.4389253 4.411534-9.8374836 9.837484-9.8374836 2.017038 0 3.892529.6003931 5.461337 1.6513761.731324.3762779 1.568807.5897772 2.453473.5897772 3.007864 0 5.437746-2.4416776 5.437746-5.4495413 0-3.0090432-2.429882-5.4377457-5.437746-5.4377457h-62.1861076c-2.3944954 0-4.5176933 1.1323722-5.8612057 2.9017038-1.3458716-1.7693316-3.4690695-2.9017038-5.8635649-2.9017038h-44.7994758c-14.3315858 0-25.938401-11.6186108-25.938401-25.9395806 0-8.3984273 3.99986894-15.86500657 10.1925295-20.59501968.3644823-.30550459.7431193-.5897772 1.1547837-.84809961h.0117956c1.4874181-.90943643 3.231979-1.42726081 5.1074705-1.42726081 5.4271297 0 9.8374836 4.39855832 9.8374836 9.83748362 0 5.42477068-4.4103539 9.82568808-9.8374836 9.82568808-2.017038 0-3.8925295-.6015727-5.4613368-1.6395806v-.0129751c-.7313238-.3644823-1.56880738-.5768021-2.45347317-.5768021-3.00786369 0-5.43656618 2.440498-5.43656618 5.4365662 0 3.0078637 2.42870249 5.4507208 5.43656618 5.4507208h62.18610747c2.3944954 0 4.5176933-1.1441677 5.8635649-2.9134993 1.3435124 1.7693316 3.4667103 2.9134993 5.8612057 2.9134993h44.8124506c14.318611 0 25.925426 11.6056357 25.925426 25.9266055z"/><path d="m69.6053866 11.2169725c0 .8610747-.7077326 1.5570118-1.5558322 1.5570118h-3.5280472c-1.9214941 0-3.491481 1.5581913-3.491481 3.491481v12.0550458h-20.4888598v-12.0550458c0-1.9332897-1.5570117-3.491481-3.4914809-3.491481h-3.5150721c-.8610747 0-1.5558323-.6959371-1.5558323-1.5570118" stroke-linecap="round" stroke-linejoin="round"/><path d="m121.223984 11.2169725c0 .8610747-.697116 1.5570118-1.558191 1.5570118h-3.515072c-1.934469 0-3.491481 1.5581913-3.491481 3.491481v12.0550458h-20.4876804v-12.0550458c0-1.9332897-1.5581913-3.491481-3.4926605-3.491481h-3.5256881c-.8622543 0-1.5463958-.6959371-1.5463958-1.5570118" stroke-linecap="round" stroke-linejoin="round"/><path d="m31.978781 11.216973h37.626606"/><path d="m83.978781 11.216973h37.245203" stroke-linecap="round" stroke-linejoin="round"/></g><path d="m153.200524 54.2477064c0 8.3984273-3.998689 15.863827-10.19135 20.6068152-.365662.3055046-.743119.5897772-1.155963.8374836l-.011796.010616c-1.486238.9094365-3.231979 1.4272608-5.10747 1.4272608-5.42595 0-9.837484-4.4103538-9.837484-9.836304 0-5.4389253 4.411534-9.8374836 9.837484-9.8374836 2.017038 0 3.892529.6003931 5.461337 1.6513761.731324.3762779 1.568807.5897772 2.453473.5897772 3.007864 0 5.437746-2.4416776 5.437746-5.4495413 0-3.0090432-2.429882-5.4377457-5.437746-5.4377457h-62.1861076c-2.3944954 0-4.5176933 1.1323722-5.8612057 2.9017038-1.3458716-1.7693316-3.4690695-2.9017038-5.8635649-2.9017038h-44.7994758c-14.3315858 0-25.938401-11.6186108-25.938401-25.9395806 0-8.3984273 3.99986894-15.86500657 10.1925295-20.59501968.3644823-.30550459.7431193-.5897772 1.1547837-.84809961h.0117956c1.4874181-.90943643 3.231979-1.42726081 5.1074705-1.42726081 5.4271297 0 9.8374836 4.39855832 9.8374836 9.83748362 0 5.42477068-4.4103539 9.82568808-9.8374836 9.82568808-2.017038 0-3.8925295-.6015727-5.4613368-1.6395806v-.0129751c-.7313238-.3644823-1.56880738-.5768021-2.45347317-.5768021-3.00786369 0-5.43656618 2.440498-5.43656618 5.4365662 0 3.0078637 2.42870249 5.4507208 5.43656618 5.4507208h62.18610747c2.3944954 0 4.5176933-1.1441677 5.8635649-2.9134993 1.3435124 1.7693316 3.4667103 2.9134993 5.8612057 2.9134993h44.8124506c14.318611 0 25.925426 11.6056357 25.925426 25.9266055z"/></g></g></g></svg>

<?xml version="1.0" encoding="UTF-8"?>
<svg width="156px" height="55px" viewBox="0 0 156 55" version="1.1" xmlns="http://www.w3.org/2000/svg" xmlns:xlink="http://www.w3.org/1999/xlink">
    <title>正放</title>
    <defs>
        <rect id="path-1" x="0" y="0" width="156" height="55"></rect>
    </defs>
    <g id="页面-1" stroke="none" stroke-width="1" fill="none" fill-rule="evenodd">
        <g id="登录页备份" transform="translate(-41.000000, -16.000000)">
            <g id="正放" transform="translate(41.000000, 16.000000)">
                <mask id="mask-2" fill="white">
                    <use xlink:href="#path-1"></use>
                </mask>
                <use id="蒙版" fill="#F0F2F5" xlink:href="#path-1"></use>
                <g id="编组-3" mask="url(#mask-2)">
                    <g transform="translate(1.151953, -66.410341)">
                        <g id="编组-2" stroke="none" fill-rule="evenodd" transform="translate(0.000000, 55.000000)">
                            <path d="M153.200524,54.2477064 C153.200524,62.6461337 149.201835,70.1115334 143.009174,74.8545216 C142.643512,75.1600262 142.266055,75.4442988 141.853211,75.6920052 L141.841415,75.7026212 C140.355177,76.6120577 138.609436,77.129882 136.733945,77.129882 C131.307995,77.129882 126.896461,72.7195282 126.896461,67.293578 C126.896461,61.8546527 131.307995,57.4560944 136.733945,57.4560944 C138.750983,57.4560944 140.626474,58.0564875 142.195282,59.1074705 C142.926606,59.4837484 143.764089,59.6972477 144.648755,59.6972477 C147.656619,59.6972477 150.086501,57.2555701 150.086501,54.2477064 C150.086501,51.2386632 147.656619,48.8099607 144.648755,48.8099607 L82.4626474,48.8099607 C80.068152,48.8099607 77.9449541,49.9423329 76.6014417,51.7116645 C75.2555701,49.9423329 73.1323722,48.8099607 70.7378768,48.8099607 L25.938401,48.8099607 C11.6068152,48.8099607 -8.52651283e-14,37.1913499 -8.52651283e-14,22.8703801 C-8.52651283e-14,14.4719528 3.99986894,7.00537353 10.1925295,2.27536042 C10.5570118,1.96985583 10.9356488,1.68558322 11.3473132,1.42726081 L11.3591088,1.42726081 C12.8465269,0.517824377 14.5910878,-4.26325641e-14 16.4665793,-4.26325641e-14 C21.893709,-4.26325641e-14 26.3040629,4.39855832 26.3040629,9.83748362 C26.3040629,15.2622543 21.893709,19.6631717 16.4665793,19.6631717 C14.4495413,19.6631717 12.5740498,19.061599 11.0052425,18.0235911 L11.0052425,18.010616 C10.2739187,17.6461337 9.43643512,17.4338139 8.55176933,17.4338139 C5.54390564,17.4338139 3.11520315,19.8743119 3.11520315,22.8703801 C3.11520315,25.8782438 5.54390564,28.3211009 8.55176933,28.3211009 L70.7378768,28.3211009 C73.1323722,28.3211009 75.2555701,27.1769332 76.6014417,25.4076016 C77.9449541,27.1769332 80.068152,28.3211009 82.4626474,28.3211009 L127.275098,28.3211009 C141.593709,28.3211009 153.200524,39.9267366 153.200524,54.2477064 Z" id="Stroke-1" stroke="#E6EEF8"></path>
                            <path d="M31.9787811,65.9130275 C31.9787811,65.0531324 32.6735387,64.3560157 33.5346134,64.3560157 L37.0496855,64.3560157 C38.9841547,64.3560157 40.5411664,62.7872084 40.5411664,60.8645347 L40.5411664,48.8094889 L61.0300262,48.8094889 L61.0300262,60.8645347 C61.0300262,62.7872084 62.6000131,64.3560157 64.5215072,64.3560157 L68.0495544,64.3560157 C68.897654,64.3560157 69.6053866,65.0531324 69.6053866,65.9130275" id="路径" stroke="#E6EEF8"></path>
                            <path d="M69.6053866,11.2169725 C69.6053866,12.0780472 68.897654,12.7739843 68.0495544,12.7739843 L64.5215072,12.7739843 C62.6000131,12.7739843 61.0300262,14.3321756 61.0300262,16.2654653 L61.0300262,28.3205111 L40.5411664,28.3205111 L40.5411664,16.2654653 C40.5411664,14.3321756 38.9841547,12.7739843 37.0496855,12.7739843 L33.5346134,12.7739843 C32.6735387,12.7739843 31.9787811,12.0780472 31.9787811,11.2169725" id="路径" stroke="#E6EEF8" stroke-linecap="round" stroke-linejoin="round"></path>
                            <path d="M83.6063434,65.9130275 C83.6063434,65.0531324 84.2904849,64.3560157 85.1527392,64.3560157 L88.6784273,64.3560157 C90.6022805,64.3560157 92.1710878,62.7872084 92.1710878,60.8645347 L92.1710878,48.8094889 L112.658768,48.8094889 L112.658768,60.8645347 C112.658768,62.7872084 114.216959,64.3560157 116.150249,64.3560157 L119.666501,64.3560157 C120.526396,64.3560157 121.223512,65.0531324 121.223512,65.9130275" id="路径" stroke="#E6EEF8" stroke-linecap="round" stroke-linejoin="round"></path>
                            <path d="M121.223984,11.2169725 C121.223984,12.0780472 120.526868,12.7739843 119.665793,12.7739843 L116.150721,12.7739843 C114.216252,12.7739843 112.65924,14.3321756 112.65924,16.2654653 L112.65924,28.3205111 L92.1715596,28.3205111 L92.1715596,16.2654653 C92.1715596,14.3321756 90.6133683,12.7739843 88.6788991,12.7739843 L85.153211,12.7739843 C84.2909567,12.7739843 83.6068152,12.0780472 83.6068152,11.2169725" id="路径" stroke="#E6EEF8" stroke-linecap="round" stroke-linejoin="round"></path>
                            <line x1="31.9787811" y1="65.9130275" x2="69.6053866" y2="65.9130275" id="路径-5" stroke="#E6EEF8" stroke-linecap="round" stroke-linejoin="round"></line>
                            <line x1="83.9787811" y1="65.9130275" x2="121.223984" y2="65.9130275" id="路径-5备份" stroke="#E6EEF8" stroke-linecap="round" stroke-linejoin="round"></line>
                        </g>
                        <g id="编组-2备份" stroke="none" fill-rule="evenodd" transform="translate(0.000000, 110.000000)">
                            <path d="M153.200524,54.2477064 C153.200524,62.6461337 149.201835,70.1115334 143.009174,74.8545216 C142.643512,75.1600262 142.266055,75.4442988 141.853211,75.6920052 L141.841415,75.7026212 C140.355177,76.6120577 138.609436,77.129882 136.733945,77.129882 C131.307995,77.129882 126.896461,72.7195282 126.896461,67.293578 C126.896461,61.8546527 131.307995,57.4560944 136.733945,57.4560944 C138.750983,57.4560944 140.626474,58.0564875 142.195282,59.1074705 C142.926606,59.4837484 143.764089,59.6972477 144.648755,59.6972477 C147.656619,59.6972477 150.086501,57.2555701 150.086501,54.2477064 C150.086501,51.2386632 147.656619,48.8099607 144.648755,48.8099607 L82.4626474,48.8099607 C80.068152,48.8099607 77.9449541,49.9423329 76.6014417,51.7116645 C75.2555701,49.9423329 73.1323722,48.8099607 70.7378768,48.8099607 L25.938401,48.8099607 C11.6068152,48.8099607 -8.52651283e-14,37.1913499 -8.52651283e-14,22.8703801 C-8.52651283e-14,14.4719528 3.99986894,7.00537353 10.1925295,2.27536042 C10.5570118,1.96985583 10.9356488,1.68558322 11.3473132,1.42726081 L11.3591088,1.42726081 C12.8465269,0.517824377 14.5910878,-4.26325641e-14 16.4665793,-4.26325641e-14 C21.893709,-4.26325641e-14 26.3040629,4.39855832 26.3040629,9.83748362 C26.3040629,15.2622543 21.893709,19.6631717 16.4665793,19.6631717 C14.4495413,19.6631717 12.5740498,19.061599 11.0052425,18.0235911 L11.0052425,18.010616 C10.2739187,17.6461337 9.43643512,17.4338139 8.55176933,17.4338139 C5.54390564,17.4338139 3.11520315,19.8743119 3.11520315,22.8703801 C3.11520315,25.8782438 5.54390564,28.3211009 8.55176933,28.3211009 L70.7378768,28.3211009 C73.1323722,28.3211009 75.2555701,27.1769332 76.6014417,25.4076016 C77.9449541,27.1769332 80.068152,28.3211009 82.4626474,28.3211009 L127.275098,28.3211009 C141.593709,28.3211009 153.200524,39.9267366 153.200524,54.2477064 Z" id="Stroke-1" stroke="#E6EEF8"></path>
                            <path d="M69.6053866,11.2169725 C69.6053866,12.0780472 68.897654,12.7739843 68.0495544,12.7739843 L64.5215072,12.7739843 C62.6000131,12.7739843 61.0300262,14.3321756 61.0300262,16.2654653 L61.0300262,28.3205111 L40.5411664,28.3205111 L40.5411664,16.2654653 C40.5411664,14.3321756 38.9841547,12.7739843 37.0496855,12.7739843 L33.5346134,12.7739843 C32.6735387,12.7739843 31.9787811,12.0780472 31.9787811,11.2169725" id="路径" stroke="#E6EEF8" stroke-linecap="round" stroke-linejoin="round"></path>
                            <path d="M121.223984,11.2169725 C121.223984,12.0780472 120.526868,12.7739843 119.665793,12.7739843 L116.150721,12.7739843 C114.216252,12.7739843 112.65924,14.3321756 112.65924,16.2654653 L112.65924,28.3205111 L92.1715596,28.3205111 L92.1715596,16.2654653 C92.1715596,14.3321756 90.6133683,12.7739843 88.6788991,12.7739843 L85.153211,12.7739843 C84.2909567,12.7739843 83.6068152,12.0780472 83.6068152,11.2169725" id="路径" stroke="#E6EEF8" stroke-linecap="round" stroke-linejoin="round"></path>
                            <line x1="31.9787811" y1="11.2169725" x2="69.6053866" y2="11.2169725" id="路径-4" stroke="#E6EEF8"></line>
                            <line x1="83.9787811" y1="11.2169725" x2="121.223984" y2="11.2169725" id="路径-4备份" stroke="#E6EEF8" stroke-linecap="round" stroke-linejoin="round"></line>
                        </g>
                        <path d="M153.200524,54.2477064 C153.200524,62.6461337 149.201835,70.1115334 143.009174,74.8545216 C142.643512,75.1600262 142.266055,75.4442988 141.853211,75.6920052 L141.841415,75.7026212 C140.355177,76.6120577 138.609436,77.129882 136.733945,77.129882 C131.307995,77.129882 126.896461,72.7195282 126.896461,67.293578 C126.896461,61.8546527 131.307995,57.4560944 136.733945,57.4560944 C138.750983,57.4560944 140.626474,58.0564875 142.195282,59.1074705 C142.926606,59.4837484 143.764089,59.6972477 144.648755,59.6972477 C147.656619,59.6972477 150.086501,57.2555701 150.086501,54.2477064 C150.086501,51.2386632 147.656619,48.8099607 144.648755,48.8099607 L82.4626474,48.8099607 C80.068152,48.8099607 77.9449541,49.9423329 76.6014417,51.7116645 C75.2555701,49.9423329 73.1323722,48.8099607 70.7378768,48.8099607 L25.938401,48.8099607 C11.6068152,48.8099607 0,37.1913499 0,22.8703801 C0,14.4719528 3.99986894,7.00537353 10.1925295,2.27536042 C10.5570118,1.96985583 10.9356488,1.68558322 11.3473132,1.42726081 L11.3591088,1.42726081 C12.8465269,0.517824377 14.5910878,0 16.4665793,0 C21.893709,0 26.3040629,4.39855832 26.3040629,9.83748362 C26.3040629,15.2622543 21.893709,19.6631717 16.4665793,19.6631717 C14.4495413,19.6631717 12.5740498,19.061599 11.0052425,18.0235911 L11.0052425,18.010616 C10.2739187,17.6461337 9.43643512,17.4338139 8.55176933,17.4338139 C5.54390564,17.4338139 3.11520315,19.8743119 3.11520315,22.8703801 C3.11520315,25.8782438 5.54390564,28.3211009 8.55176933,28.3211009 L70.7378768,28.3211009 C73.1323722,28.3211009 75.2555701,27.1769332 76.6014417,25.4076016 C77.9449541,27.1769332 80.068152,28.3211009 82.4626474,28.3211009 L127.275098,28.3211009 C141.593709,28.3211009 153.200524,39.9267366 153.200524,54.2477064 Z" id="Stroke-1" stroke="#E6EEF8"></path>
                    </g>
                </g>
            </g>
        </g>
    </g>
</svg>
